Newaita-dark/.DP/24/mailspring-tray-full-newitems.svg

<svg xmlns="http://www.w3.org/2000/svg" xmlns:xlink="http://www.w3.org/1999/xlink" width="24px" height="24px" viewBox="0 0 24 24" version="1.1">
<g id="surface1">
<path style=" stroke:none;fill-rule:nonzero;fill:rgb(14.901961%,65.098041%,60.392159%);fill-opacity:1;" d="M 11.90625 2.171875 C 8.3125 2.164062 4.996094 4.105469 3.242188 7.242188 L 11.90625 13.171875 L 20.574219 7.242188 C 18.820312 4.105469 15.503906 2.164062 11.90625 2.171875 Z M 2.605469 8.621094 C 2.191406 9.734375 1.980469 10.910156 1.984375 12.097656 C 1.976562 14.648438 2.957031 17.105469 4.71875 18.949219 L 7.851562 15.097656 C 8.117188 14.785156 8.582031 14.742188 8.898438 14.996094 C 9.214844 15.253906 9.265625 15.71875 9.015625 16.039062 L 5.835938 19.953125 C 7.574219 21.296875 9.710938 22.023438 11.90625 22.015625 C 14.199219 22.015625 16.304688 21.246094 17.976562 19.953125 L 14.796875 16.039062 C 14.449219 16.042969 14.148438 15.800781 14.066406 15.464844 C 13.988281 15.125 14.152344 14.777344 14.464844 14.621094 C 14.773438 14.464844 15.152344 14.542969 15.375 14.8125 C 15.601562 14.8125 15.820312 14.914062 15.960938 15.097656 L 19.09375 18.949219 C 20.855469 17.105469 21.835938 14.648438 21.828125 12.097656 C 21.828125 10.871094 21.613281 9.699219 21.210938 8.621094 L 12.328125 14.699219 C 12.074219 14.871094 11.738281 14.871094 11.484375 14.699219 Z M 2.605469 8.621094 "/>
</g>
</svg>

<svg xmlns="http://www.w3.org/2000/svg" width="32" height="32" viewBox="0 0 24 24"><path d="M11.906 2.172a9.899 9.899 0 0 0-8.664 5.07l8.664 5.93 8.668-5.93a9.9 9.9 0 0 0-8.668-5.07zm-9.3 6.45a9.935 9.935 0 0 0-.622 3.472 9.88 9.88 0 0 0 2.739 6.855l3.129-3.855a.759.759 0 0 1 .566-.285.747.747 0 1 1 .598 1.23l-3.18 3.914a9.88 9.88 0 0 0 6.07 2.067c2.293 0 4.399-.77 6.074-2.067L14.8 16.04a.743.743 0 0 1-.105-.797.75.75 0 0 1 1.266-.148l3.133 3.855a9.898 9.898 0 0 0 2.738-6.855c0-1.223-.223-2.39-.621-3.473L12.332 14.7a.761.761 0 0 1-.848 0zm0 0" fill="#26a69a"/></svg>
